X: 231
T: Miss Parker's Reel
R: reel
M: C|
L: 1/8
Z: 2012 John Chambers <jc:trillian.mit.edu>
B: J. Anderson "Budget of Strathspeys, Reels and Country Dances" (Early 1800s) p.23 #1
F: http://imslp.org/wiki/Anderson%27s_Budget_of_Strathspeys,_Reels_and_Country_Dances_(Various)
K: G
d | BGGA GBAG | AGAB dcAc | BGGA GBAG | AEEF G2G :|
d | BGdB gded | cBAB cedc | BGdB gfed | edef d2d ||
(e/f/) | (gf).e.d (cB).A.G | AGAB cAdc | BGce dBge | dcBA G2G |]

%%sep 2 1 500
%%sep 1 1 500

